X: 32
T: Red Fox Waltz
O: Missouri, Old Time
N: arranged by Michael Pavan
M: 3/4
L: 1/8
K: D
|:\
"D"A,4 D2 | F3 E D2 | "G"d3 e dc | B6 |\
"D"A,4 D2 | F3 E D2 | A2 F2 D2 | "A"E6 |
"D"A,4 D2 | F3 E D2 | "G"d3 e dc | B3 d cB "^I"|\
"D"A2 ab a2 | A2 ab a2 | "A7"f3 e fe |[1 "D"d6 :|[2"D"d3 e fg ||
|:\
"D"a3 b ag | f2 d2 d2 | "G"e3 f ed | "(Em)"B6 |\
"A7"c3 d cB | A2 E2 E2 | A3 B AG | "D"F3 e fg |
"D"a3 b ag | f2 d2 d2 | "G"e3 f ed | "(Em)"B3 d cB "^I"|\
"D"A2 ab a2 | A2 ab a2 | "A7"f3 e fe |[1 "D"d3 e fg :|[2"D"d6 |]


